X: 21818
T: Kinnard, The
R: polka
M: 2/4
K: Gmajor
BG G/A/G/E/|DG GA|BG GF/G/|Ad d/e/d/c/|
BG G/A/G/E/|DG GB/d/|ed cA|AG G2:|
Bd g2|fe e2|cd f2|ed d/e/d/c/|
Bd g2|fe a>g|fd ef|ag g2:|

